assets/thin/bank-thin.svg

<svg id="Flat" xmlns="http://www.w3.org/2000/svg" viewBox="0 0 256 256">
  <path d="M24.00244,100h28v72h-20a4,4,0,0,0,0,8h192a4,4,0,0,0,0-8h-20V100h28a3.99989,3.99989,0,0,0,2.09668-7.40625l-104-64a4.00161,4.00161,0,0,0-4.19336,0l-104,64A3.99989,3.99989,0,0,0,24.00244,100Zm36,0h40v72h-40Zm88,0v72h-40V100Zm48,72h-40V100h40Zm-68-135.30371L217.87061,92H38.13428ZM244.00244,208a4.0002,4.0002,0,0,1-4,4h-224a4,4,0,0,1,0-8h224A4.0002,4.0002,0,0,1,244.00244,208Z"/>
</svg>

<svg xmlns="http://www.w3.org/2000/svg" viewBox="0 0 256 256"><path d="M24,100H52v72H32a4,4,0,0,0,0,8H224a4,4,0,0,0,0-8H204V100h28a3.9,3.9,0,0,0,3.8-2.9,4,4,0,0,0-1.7-4.5l-104-64a4,4,0,0,0-4.2,0l-104,64a4,4,0,0,0-1.7,4.5A3.9,3.9,0,0,0,24,100Zm36,0h40v72H60Zm88,0v72H108V100Zm48,72H156V100h40ZM128,36.7,217.9,92H38.1ZM244,208a4,4,0,0,1-4,4H16a4,4,0,0,1,0-8H240A4,4,0,0,1,244,208Z"/></svg>
